svg/fluentui-system-icons/ic_fluent_clipboard_3_day_24_filled.svg

<svg width="24" height="24" viewBox="0 0 24 24" fill="none" xmlns="http://www.w3.org/2000/svg">
<path d="M13.75 2H10.25C9.09205 2 8.13841 2.87472 8.01379 3.99944L6.25 4C5.00736 4 4 5.00736 4 6.25V19.75C4 20.9926 5.00736 22 6.25 22H17.75C18.9926 22 20 20.9926 20 19.75V6.25C20 5.00736 18.9926 4 17.75 4L15.9862 3.99944C15.8616 2.87472 14.9079 2 13.75 2ZM10.25 3.5H13.75C14.1642 3.5 14.5 3.83579 14.5 4.25C14.5 4.66421 14.1642 5 13.75 5H10.25C9.83579 5 9.5 4.66421 9.5 4.25C9.5 3.83579 9.83579 3.5 10.25 3.5ZM8 17.25L8 9.75C8 9.33579 8.33579 9 8.75 9C9.16421 9 9.5 9.33579 9.5 9.75L9.5 17.25C9.5 17.6642 9.16421 18 8.75 18C8.33579 18 8 17.6642 8 17.25ZM15.25 18C14.8358 18 14.5 17.6642 14.5 17.25V9.75C14.5 9.33579 14.8358 9 15.25 9C15.6642 9 16 9.33579 16 9.75V17.25C16 17.6642 15.6642 18 15.25 18ZM11.25 17.25L11.25 9.75C11.25 9.33579 11.5858 9 12 9C12.4142 9 12.75 9.33579 12.75 9.75V17.25C12.75 17.6642 12.4142 18 12 18C11.5858 18 11.25 17.6642 11.25 17.25Z" fill="#212121"/>
</svg>

<svg xmlns="http://www.w3.org/2000/svg" width="24" height="24"><path d="M13.75 2h-3.5a2.25 2.25 0 0 0-2.236 2H6.25A2.25 2.25 0 0 0 4 6.25v13.5A2.25 2.25 0 0 0 6.25 22h11.5A2.25 2.25 0 0 0 20 19.75V6.25A2.25 2.25 0 0 0 17.75 4h-1.764a2.25 2.25 0 0 0-2.236-2Zm-3.5 1.5h3.5a.75.75 0 0 1 0 1.5h-3.5a.75.75 0 0 1 0-1.5ZM8 17.25v-7.5a.75.75 0 0 1 1.5 0v7.5a.75.75 0 0 1-1.5 0Zm7.25.75a.75.75 0 0 1-.75-.75v-7.5a.75.75 0 0 1 1.5 0v7.5a.75.75 0 0 1-.75.75Zm-4-.75v-7.5a.75.75 0 0 1 1.5 0v7.5a.75.75 0 0 1-1.5 0Z"/></svg>
